X:64
T:Prince Royal. VWMLa.064
%%VWML:Anon2-3049-p38-0
F:http://www.vwml.org/record/Anon2/3049/p38
R:Country-dance
S:Anon. MS, late 18thC, Vaughan Williams Mem. Library
O:a
Z:vmp/efdss.Simon Wilson. Reviewed PJH 2008.
M:C
L:1/8
Q:2/4=100
K:Bb
dc|B2AB G2dc|B2AB G2d2|e2dec2fe|d2cd B2dc|\
BdcB AcBA|GBAG ^FDd2|{d}c2BA D2^F2|G6:|
|:d2|g^fga gfga|b2G4ba|gfed ecdB|\
A2F4A2|B2BB c2cc|d2d2 g4|
f2B2 e4|d2G2 c4|B2AF GBAG|\
^F2D4dc|BABG D2^F2|G6:|
T:Pippin. VWMLa.065
R:Country-dance
S:Anon. MS, late 18thC, Vaughan Williams Mem. Library
O:England;Yorkshire
Z:vmp/efdss.Simon Wilson. Reviewed PJH 2008.
M:C
L:1/8
Q:2/4=140
K:F
c2c2 d2f2|e2g2 f2f2|fedc d2ef|gfed c4:|\
|:f3c d2B2|f3d c2A2|f3c d2ef|gfed c4:|
|:c3d c2A2|B2G2 A2F2|c3d c2f2|bagf(f2e2)|\
c3d c2A2|B2G2 A2F2|f2a2 d2b2|agfe f4:|
